build/assets/img/svg/dryer.svg

<svg width="64" height="63" viewBox="0 0 64 63" fill="none" xmlns="http://www.w3.org/2000/svg">
<path d="M62.57 13.7741C59.744 3.82664 49.3444 -2.05139 39.397 0.661548C33.1799 2.35713 28.3192 7.10477 26.3975 13.2089L0.850727 22.5911C0.285532 22.8172 -0.166624 23.4954 0.059454 24.1737L3.56366 36.9471C3.78974 37.6253 4.35494 37.9644 5.03317 37.8514L31.5973 32.6516C34.1972 35.0254 37.4754 36.6079 40.8665 37.2862V37.3992L45.9533 55.9376C47.1967 60.3461 51.7183 62.946 56.2398 61.7026C60.6483 60.4592 63.2482 55.9376 62.0048 51.416L56.805 32.7646C62.2309 28.2431 64.4917 20.7825 62.57 13.7741ZM54.5442 31.5212C54.0921 31.8603 53.979 32.3125 54.0921 32.8777L59.518 52.2073C60.4223 55.2594 58.6136 58.4245 55.4486 59.3288C52.3965 60.2331 49.2314 58.4245 48.3271 55.2594L46.4054 47.6858L49.1184 46.8945C49.7966 46.6684 50.2488 45.9902 50.0227 45.3119C49.7966 44.6337 49.1184 44.1815 48.4401 44.4076L45.7272 45.1989L45.3881 44.0685L48.101 43.2772C48.7793 43.0512 49.2314 42.3729 49.0053 41.6947C48.7793 41.0165 48.101 40.5643 47.4228 40.7904L44.7098 41.5817L43.5795 37.5122C45.5011 37.6253 47.4228 37.3992 49.3444 36.834C50.0227 36.6079 50.4748 35.9297 50.2488 35.2515C50.0227 34.5732 49.3444 34.1211 48.6662 34.3472C43.0143 35.9297 37.0232 34.3472 32.8408 30.2778C32.7277 30.1647 32.7277 30.1647 32.6147 30.0517C32.5016 30.0517 32.5016 29.9386 32.3886 29.9386C32.2756 29.9386 32.2756 29.9386 32.1625 29.9386C32.1625 29.9386 32.1625 29.9386 32.0495 29.9386C31.9364 29.9386 31.9364 29.9386 31.8234 29.9386H31.7104H31.5973L5.59836 35.0254L2.65935 24.5128L27.641 15.2436H27.754H27.867L27.9801 15.1305C27.9801 15.1305 27.9801 15.1305 28.0931 15.1305L28.2062 15.0175C28.2062 15.0175 28.2062 15.0175 28.3192 14.9045L28.4322 14.7914C28.4322 14.7914 28.4322 14.7914 28.4322 14.6784C28.4322 14.6784 28.4322 14.5653 28.5453 14.4523C30.2409 9.02643 34.5363 4.61791 40.0753 3.1484C48.6662 0.774587 57.7093 5.86134 60.0831 14.4523C61.7787 20.7825 59.631 27.4518 54.5442 31.5212Z" fill="#444444"/>
</svg>

<svg width="64" height="63" fill="none" xmlns="http://www.w3.org/2000/svg"><path d="M62.57 13.774C59.744 3.827 49.344-2.05 39.397.662c-6.217 1.695-11.078 6.443-13 12.547L.852 22.59c-.565.226-1.018.904-.792 1.583l3.505 12.773c.226.678.79 1.017 1.47.904l26.563-5.2c2.6 2.374 5.878 3.957 9.27 4.635v.113l5.086 18.539c1.244 4.408 5.765 7.008 10.287 5.765 4.408-1.244 7.008-5.765 5.765-10.287l-5.2-18.651c5.426-4.522 7.687-11.983 5.765-18.99zm-8.026 17.747c-.452.34-.565.791-.452 1.357l5.426 19.33c.904 3.051-.904 6.217-4.07 7.12-3.051.905-6.217-.904-7.12-4.069l-1.923-7.573 2.713-.791c.679-.227 1.13-.905.905-1.583-.226-.678-.905-1.13-1.583-.904l-2.713.79-.339-1.13 2.713-.79c.678-.227 1.13-.905.904-1.583-.226-.678-.904-1.13-1.582-.905l-2.713.792-1.13-4.07a16.797 16.797 0 005.764-.678c.679-.226 1.13-.904.905-1.583-.226-.678-.905-1.13-1.583-.904-5.652 1.583-11.643 0-15.825-4.07l-.226-.225c-.113 0-.113-.113-.226-.113h-.791l-26 5.086L2.66 24.513l24.982-9.27h.226l.113-.113h.113l.113-.113.113-.112.113-.114v-.113s0-.113.113-.226c1.696-5.426 5.991-9.834 11.53-11.304C48.666.775 57.71 5.861 60.083 14.452c1.696 6.33-.452 13-5.539 17.07z" fill="#444"/></svg>
